X: 19
T: Lark In The Morning, The
Z: Makenzie
S: https://thesession.org/tunes/62#setting46802
R: jig
M: 6/8
L: 1/8
K: Dmaj
|:AFA AFA|BGB BGB|AFA Ade|fed B/c/dB|
AFA AFA|B2B BGB|def afe|fdB BAF:|
|:def afa|baf afe|def afe|fdB BAB|
def afa|baf a2f|gfg fef|fdB BAB:|
|:d2f fef|fef fef|d2f fef|edB BAB|
d2f fef|fef fed|gfg fef|edB BAB:|
|:Add fdd|edd fdd|Add fdd|edB BAF|
Add fdd|ede fed|gfg fef|edB BAB:|

